X: 2569
T: Ballykinleer
R: reel
M: 4/4
K: Amajor
|:c2|BAFD EA,CE|Acag fecA|BF~F2 BFcB|AECA, CEAc|
BF~F2 ~E3F|Acag fece|fdaf eac'a|babc' a2:|
|:e2|abc'a bc'af|eaec ABce|fc ~c2 fcec|B2 Ac BAFE|
A,C~C2 B,D~D2|CE~E2 DF~F2|EGBd cEGB|~A2 Bc A2:|

